X: 10333
T: Don Freake's
R: polka
M: 2/4
K: Adorian
|:A A2 G|Bd ef|gf/e/ dB|AB GB|
A A2 G|Bd ef|gf/e/ dB|1 A2 AG:|2 A2 ga||
bg/b/ af/a/|gf ef|gf/e/ dB|A2 ga|
bg/b/ af/a/|gf ef|gf/e/ fg|a2 ga|
bg/b/ af/a/|gf ef|gf/e/ dB|A2 GB|
A A2 G|Bd ef|gf/e/ dB|A2 AG||

